Страховая/img/svg/secStep2.svg

<svg width="112" height="112" viewBox="0 0 112 112" fill="none" xmlns="http://www.w3.org/2000/svg">
<path d="M30.3747 24.8159C48.5118 14.7612 68.5648 16.9461 84.091 32.4723C99.6172 47.9985 97.4012 73.0116 81.8313 88.5815C66.2614 104.151 32.1603 83.7792 16.6341 68.253C1.10791 52.7268 9.93857 36.1451 30.3747 24.8159Z" fill="#E7F1F2"/>
<path d="M67.5643 44.3041C67.5643 45.9254 67.2443 47.4827 66.6043 48.9761C65.9643 50.4694 65.1323 51.9201 64.1083 53.3281C63.0843 54.6934 61.9323 56.0161 60.6523 57.2961C59.3723 58.5761 58.1136 59.7921 56.8763 60.9441C56.2363 61.5414 55.5323 62.2241 54.7643 62.9921C54.039 63.7174 53.335 64.4641 52.6523 65.2321C51.9696 66.0001 51.351 66.7254 50.7963 67.4081C50.2843 68.0481 49.9643 68.5814 49.8363 69.0081H68.9083V77.0081H39.3403C39.255 76.5387 39.2123 75.9414 39.2123 75.2161C39.2123 74.4907 39.2123 73.9787 39.2123 73.6801C39.2123 71.6321 39.5323 69.7547 40.1723 68.0481C40.855 66.3414 41.7296 64.7627 42.7963 63.3121C43.863 61.8187 45.0576 60.4321 46.3803 59.1521C47.7456 57.8721 49.0896 56.5921 50.4123 55.3121C51.4363 54.3307 52.3963 53.4134 53.2923 52.5601C54.1883 51.6641 54.9776 50.8107 55.6603 50.0001C56.343 49.1467 56.8763 48.3147 57.2603 47.5041C57.6443 46.6507 57.8363 45.7974 57.8363 44.9441C57.8363 43.0667 57.303 41.7441 56.2363 40.9761C55.1696 40.2081 53.847 39.8241 52.2683 39.8241C51.1163 39.8241 50.0283 40.0161 49.0043 40.4001C48.023 40.7414 47.1056 41.1681 46.2523 41.6801C45.4416 42.1494 44.7376 42.6401 44.1403 43.1521C43.543 43.6214 43.095 44.0054 42.7963 44.3041L38.0603 37.6481C39.9376 35.8987 42.1136 34.4694 44.5883 33.3601C47.1056 32.2081 49.7936 31.6321 52.6523 31.6321C55.255 31.6321 57.495 31.9307 59.3723 32.5281C61.2496 33.1254 62.7856 33.9787 63.9803 35.0881C65.2176 36.1547 66.1136 37.4774 66.6683 39.0561C67.2656 40.5921 67.5643 42.3414 67.5643 44.3041Z" fill="#5FB5BF"/>
</svg>

<svg width="112" height="112" fill="none" xmlns="http://www.w3.org/2000/svg"><path d="M30.375 24.816c18.137-10.055 38.19-7.87 53.716 7.656 15.526 15.526 13.31 40.54-2.26 56.11-15.57 15.569-49.67-4.803-65.197-20.329C1.108 52.727 9.94 36.145 30.374 24.816z" fill="#E7F1F2"/><path d="M67.564 44.304c0 1.621-.32 3.179-.96 4.672a22.405 22.405 0 01-2.496 4.352 37.095 37.095 0 01-3.456 3.968 147.252 147.252 0 01-3.776 3.648c-.64.597-1.344 1.28-2.112 2.048a52.416 52.416 0 00-2.112 2.24 64.78 64.78 0 00-1.856 2.176c-.512.64-.832 1.173-.96 1.6h19.072v8H39.34c-.085-.47-.128-1.067-.128-1.792V73.68c0-2.048.32-3.925.96-5.632a21.328 21.328 0 012.624-4.736 30.222 30.222 0 013.584-4.16 351.75 351.75 0 004.032-3.84 1262.31 1262.31 0 012.88-2.752A41.052 41.052 0 0055.66 50c.683-.853 1.216-1.685 1.6-2.496.384-.853.576-1.707.576-2.56 0-1.877-.533-3.2-1.6-3.968-1.066-.768-2.389-1.152-3.968-1.152-1.152 0-2.24.192-3.264.576-.981.341-1.898.768-2.752 1.28-.81.47-1.514.96-2.112 1.472-.597.47-1.045.853-1.344 1.152l-4.736-6.656c1.878-1.75 4.054-3.179 6.528-4.288 2.518-1.152 5.206-1.728 8.064-1.728 2.603 0 4.843.299 6.72.896 1.878.597 3.414 1.45 4.608 2.56 1.238 1.067 2.134 2.39 2.688 3.968.598 1.536.896 3.285.896 5.248z" fill="#5FB5BF"/></svg>
